packages/mask/src/plugins/Avatar/assets/mask.dark.svg

<svg width="32" height="31" viewBox="0 0 32 31" fill="none" xmlns="http://www.w3.org/2000/svg">
<rect x="0.880859" y="0.234375" width="30.2381" height="30" rx="15" fill="#6F6F6F"/>
<path fill-rule="evenodd" clip-rule="evenodd" d="M24.7619 11.8316V16.6927H10.1581L9.52975 16.6928C10.1948 19.6423 12.834 21.8455 15.9885 21.8455C18.5965 21.8455 20.8522 20.3396 21.9314 18.1511L24.7619 18.1511V22.2344C24.7619 23.2009 23.9773 23.9844 23.0094 23.9844H8.98976C8.02191 23.9844 7.2373 23.2009 7.2373 22.2344V11.8316H24.7619ZM20.2506 18.1511C19.3212 19.508 17.759 20.3984 15.9885 20.3984C14.218 20.3984 12.6558 19.508 11.7264 18.1511H20.2506ZM12.2513 12.9983C10.8779 12.9983 9.7418 14.0124 9.55284 15.3316L11.0467 15.3316C11.2109 14.8239 11.6881 14.4566 12.2513 14.4566C12.8144 14.4566 13.2917 14.8239 13.4559 15.3316L14.9497 15.3316C14.7608 14.0124 13.6246 12.9983 12.2513 12.9983ZM19.7479 12.9983C18.3746 12.9983 17.2384 14.0124 17.0495 15.3316L18.5433 15.3316C18.7075 14.8239 19.1848 14.4566 19.7479 14.4566C20.311 14.4566 20.7883 14.8239 20.9525 15.3316L22.4463 15.3316C22.2574 14.0124 21.1212 12.9983 19.7479 12.9983ZM23.0094 6.48438C23.9773 6.48438 24.7619 7.26788 24.7619 8.23438V10.3733H7.2373V8.23438C7.2373 7.26788 8.02191 6.48438 8.98976 6.48438H23.0094Z" fill="#1C1C1C"/>
</svg>

<svg xmlns="http://www.w3.org/2000/svg" fill="none" viewBox="0 0 32 31">
    <rect width="30.238" height="30" x=".881" y=".234" fill="#6F6F6F" rx="15"/>
    <path fill="#1C1C1C" fill-rule="evenodd" d="M24.762 11.832v4.86H9.53a6.62 6.62 0 0 0 6.459 5.154 6.622 6.622 0 0 0 5.942-3.695h2.83v4.083a1.75 1.75 0 0 1-1.752 1.75H8.99a1.751 1.751 0 0 1-1.752-1.75V11.832h17.525Zm-4.511 6.32a5.157 5.157 0 0 1-4.263 2.246c-1.77 0-3.332-.89-4.262-2.247h8.525Zm-8-5.154a2.725 2.725 0 0 0-2.698 2.334h1.494a1.266 1.266 0 0 1 2.409 0h1.494a2.725 2.725 0 0 0-2.699-2.334Zm7.497 0a2.725 2.725 0 0 0-2.699 2.334h1.494a1.266 1.266 0 0 1 2.41 0h1.493a2.725 2.725 0 0 0-2.698-2.334Zm3.261-6.514c.968 0 1.753.784 1.753 1.75v2.14H7.237v-2.14c0-.966.785-1.75 1.753-1.75h14.02Z" clip-rule="evenodd"/>
</svg>
